svg/feather.svg

<svg width="284" height="284" viewBox="0 0 284 284" fill="none" xmlns="http://www.w3.org/2000/svg">
<path fill-rule="evenodd" clip-rule="evenodd" d="M233.646 72.6587C223.264 103.719 189.621 112.249 164.088 112.378C180.086 116.288 205.557 112.564 219.919 107.323C195.69 148.491 169.199 160.344 135.083 156.469C147.408 163.865 176.32 160.869 186.447 156.009C152.868 190.847 139.724 195.398 103.544 197.155C81.7843 198.212 69.6383 213.594 60.8193 240.077C55.4714 256.136 45.381 261.184 43 261.088C43 261.088 66.1489 179.098 99.5238 122.503C127.774 74.5978 143.974 58.4368 168.119 47.8097C192.263 37.1826 213.916 48.1122 250.67 43.9042C243.918 56.7319 230.759 69.0578 207.118 75.1196C215.097 76.4074 225.217 76.6673 233.646 72.6587Z" fill="black"/>
</svg>

<svg width="284" height="284" viewBox="0 0 284 284" xmlns="http://www.w3.org/2000/svg">
    <path d="M233.646 72.659c-10.382 31.06-44.025 39.59-69.558 39.719 15.998 3.91 41.47.186 55.83-5.055-24.228 41.168-50.719 53.02-84.835 49.146 12.325 7.396 41.237 4.4 51.364-.46-33.58 34.838-46.723 39.39-82.903 41.146-21.76 1.057-33.906 16.44-42.725 42.922-5.348 16.06-15.438 21.107-17.819 21.011 0 0 23.149-81.99 56.524-138.585 28.25-47.905 44.45-64.066 68.595-74.693 24.144-10.627 45.797.302 82.551-3.906-6.752 12.828-19.911 25.154-43.552 31.216 7.979 1.287 18.1 1.547 26.528-2.461z" fill="#000" fill-rule="evenodd"/>
</svg>
